svg/u1f637.svg

<svg viewBox="0 0 128 128" xmlns="http://www.w3.org/2000/svg">
  <radialGradient id="face_1_" cx="63.6" cy="2931.0103" gradientTransform="matrix(1 0 0 1 0 -2868.1101)" gradientUnits="userSpaceOnUse" r="56.9597">
    <stop offset="0.5" stop-color="#FDE030"/>
    <stop offset="0.9188" stop-color="#F7C02B"/>
    <stop offset="1" stop-color="#F4A223"/>
  </radialGradient>
  <path id="face_6_" d="M63.6,118.8c-27.9,0-58-17.5-58-55.9S35.7,7,63.6,7c15.5,0,29.8,5.1,40.4,14.4 c11.5,10.2,17.6,24.6,17.6,41.5s-6.1,31.2-17.6,41.4C93.4,113.6,79,118.8,63.6,118.8z" fill="url(#face_1_)"/>
  <path d="M111.49,29.67c5.33,8.6,8.11,18.84,8.11,30.23c0,16.9-6.1,31.2-17.6,41.4 c-10.6,9.3-25,14.5-40.4,14.5c-18.06,0-37.04-7.35-48.18-22.94c10.76,17.66,30.99,25.94,50.18,25.94c15.4,0,29.8-5.2,40.4-14.5 c11.5-10.2,17.6-24.5,17.6-41.4C121.6,50.16,118.13,38.84,111.49,29.67z" fill="#EB8F00"/>
  <g>
    <g id="face-with-medical-mask_1_">
      <g>
        <path d="M28.19,91.17c-7.35,3.63-13.9,3.06-13.9,3.06c2.05,3.76,4.08,5.57,6.09,7.56 c0,0,3.71,0.33,8.23-1.64S35.54,87.54,28.19,91.17z" fill="#EEEEEE"/>
        <path d="M28.5,69.22c-13.75-0.93-22.82-9.4-22.82-9.4c-0.46,4.97,0.23,9.7,0.23,9.7s6.51,8.11,22.33,9 C40.29,79.2,39.98,70,28.5,69.22z" fill="#EEEEEE"/>
      </g>
      <g>
        <path d="M98.93,91.17c7.35,3.63,13.9,3.06,13.9,3.06c-2.05,3.76-4.08,5.57-6.09,7.56 c0,0-3.71,0.33-8.23-1.64C93.99,98.17,91.58,87.54,98.93,91.17z" fill="#EEEEEE"/>
        <path d="M98.62,69.22c13.75-0.93,22.82-9.4,22.82-9.4c0.46,4.97-0.23,9.7-0.23,9.7s-6.51,8.11-22.33,9 C86.83,79.2,87.13,70,98.62,69.22z" fill="#EEEEEE"/>
      </g>
    </g>
    <path d="M100.98,96.87V86.1v-6.91l-0.01-8.55c-0.07-1.74-1.16-2.32-3.39-3.13c-5-1.82-20.14-6.33-33.58-6.34 l0,0h-0.01h-0.01l0,0c-13.44,0-28.59,4.52-33.58,6.34c-2.23,0.81-3.31,1.39-3.39,3.13L27,79.19v6.91v10.77 c0,0.55-0.16,3.3,3.16,4.9c3.69,1.78,18.76,7.35,33.83,7.35s30.15-5.57,33.83-7.35C101.14,100.17,100.98,97.42,100.98,96.87z" fill="#F5F5F5"/>
    <path d="M30.4,67.5c-0.76,0.13-1.44,0.49-1.88,0.98c-0.42,0.51-0.65,1.11-0.69,1.77 c-0.06,0.63,0.01,1.4,0.05,2.14l0.13,2.26c0.2,3.02,0.31,6.06,0.35,9.1c0.03,3.04-0.01,6.08-0.2,9.13 c-0.05,0.77-0.08,1.51-0.16,2.31c-0.09,0.76-0.16,1.47-0.16,2.18c-0.02,1.41,0.2,2.88,1.43,3.89c-0.76-0.19-1.46-0.74-1.93-1.43 s-0.76-1.49-0.96-2.29c-0.19-0.8-0.27-1.61-0.35-2.37c-0.09-0.73-0.14-1.5-0.22-2.26c-0.29-3.04-0.43-6.08-0.46-9.13 c-0.03-3.05,0.04-6.1,0.32-9.16c0.15-1.55,0.25-3.02,0.73-4.7c0.29-0.82,0.84-1.63,1.6-2.08C28.78,67.39,29.65,67.3,30.4,67.5z" fill="#808080"/>
    <path d="M97.4,67.5c0.75-0.2,1.62-0.11,2.39,0.33c0.76,0.45,1.31,1.26,1.6,2.08 c0.48,1.68,0.58,3.15,0.73,4.7c0.28,3.06,0.35,6.11,0.32,9.16s-0.17,6.09-0.46,9.13c-0.07,0.75-0.13,1.53-0.22,2.26 c-0.08,0.76-0.16,1.58-0.35,2.37c-0.2,0.79-0.49,1.59-0.96,2.29c-0.47,0.69-1.17,1.24-1.93,1.43c1.23-1.01,1.45-2.48,1.43-3.89 c0-0.72-0.07-1.42-0.16-2.18c-0.08-0.79-0.11-1.54-0.16-2.31c-0.19-3.05-0.23-6.09-0.2-9.13c0.04-3.04,0.15-6.07,0.35-9.1 l0.13-2.26c0.04-0.74,0.11-1.51,0.05-2.14c-0.04-0.66-0.26-1.26-0.69-1.77C98.84,67.99,98.17,67.63,97.4,67.5z" fill="#808080"/>
  </g>
  <path d="M44.67,41.94L44.67,41.94c-4.19,0-8,3.54-8,9.42s3.81,9.42,8,9.42l0,0c4.19,0,8-3.54,8-9.42 S48.86,41.94,44.67,41.94z" fill="#422B0D"/>
  <g id="peepers_58_">
    <path d="M44.28,45.87L44.28,45.87c-1.03-0.72-2.58-0.49-3.58,0.95c-1,1.45-0.67,2.97,0.36,3.69l0,0 c1.03,0.72,2.58,0.49,3.58-0.95C45.64,48.11,45.31,46.59,44.28,45.87z" fill="#896024"/>
  </g>
  <path d="M83.02,41.94L83.02,41.94c-4.19,0-8,3.54-8,9.42s3.81,9.42,8,9.42l0,0c4.19,0,8-3.54,8-9.42 S87.21,41.94,83.02,41.94z" fill="#422B0D"/>
  <g id="peepers_55_">
    <path d="M82.63,45.87L82.63,45.87c-1.03-0.72-2.58-0.49-3.58,0.95c-1,1.45-0.67,2.97,0.36,3.69l0,0 c1.03,0.72,2.58,0.49,3.58-0.95C84,48.11,83.67,46.59,82.63,45.87z" fill="#896024"/>
  </g>
</svg>

<svg viewBox="0 0 128 128" xmlns="http://www.w3.org/2000/svg">
  <defs>
    <radialGradient id="face_1_" cx="63.6" cy="62.9002" gradientUnits="userSpaceOnUse" r="56.9597">
      <stop offset="0.5" stop-color="#FDE030"/>
      <stop offset="0.9188" stop-color="#F7C02B"/>
      <stop offset="1" stop-color="#F4A223"/>
    </radialGradient>
  </defs>
  <path id="face_6_" d="M63.6,118.8 C35.7,118.8 5.6,101.3 5.6,62.9 C5.6,24.5 35.7,7 63.6,7 C79.1,7 93.4,12.1 104,21.4 C115.5,31.6 121.6,46 121.6,62.9 C121.6,79.8 115.5,94.1 104,104.3 C93.4,113.6 79,118.8 63.6,118.8 Z" fill="url(#face_1_)"/>
  <path d="M111.49,29.67 C116.82,38.27 119.6,48.51 119.6,59.9 C119.6,76.8 113.5,91.1 102,101.3 C91.4,110.6 77,115.8 61.6,115.8 C43.54,115.8 24.56,108.45 13.42,92.86 C24.18,110.52 44.41,118.8 63.6,118.8 C79,118.8 93.4,113.6 104,104.3 C115.5,94.1 121.6,79.8 121.6,62.9 C121.6,50.16 118.13,38.84 111.49,29.67 Z" fill="#EB8F00"/>
  <path d="M28.19,91.17 C20.84,94.8 14.29,94.23 14.29,94.23 C16.34,97.99 18.37,99.8 20.38,101.79 C20.38,101.79 24.09,102.12 28.61,100.15 C33.13,98.18 35.54,87.54 28.19,91.17 Z" fill="#EEEEEE"/>
  <path d="M28.5,69.22 C14.75,68.29 5.68,59.82 5.68,59.82 C5.22,64.79 5.91,69.52 5.91,69.52 C5.91,69.52 12.42,77.63 28.24,78.52 C40.29,79.2 39.98,70 28.5,69.22 Z" fill="#EEEEEE"/>
  <path d="M98.93,91.17 C106.28,94.8 112.83,94.23 112.83,94.23 C110.78,97.99 108.75,99.8 106.74,101.79 C106.74,101.79 103.03,102.12 98.51,100.15 C93.99,98.17 91.58,87.54 98.93,91.17 Z" fill="#EEEEEE"/>
  <path d="M98.62,69.22 C112.37,68.29 121.44,59.82 121.44,59.82 C121.9,64.79 121.21,69.52 121.21,69.52 C121.21,69.52 114.7,77.63 98.88,78.52 C86.83,79.2 87.13,70 98.62,69.22 Z" fill="#EEEEEE"/>
  <path d="M100.98,96.87 L100.98,86.1 L100.98,79.19 L100.97,70.64 C100.9,68.9 99.81,68.32 97.58,67.51 C92.58,65.69 77.44,61.18 64,61.17 L64,61.17 L63.99,61.17 L63.98,61.17 L63.98,61.17 C50.54,61.17 35.39,65.69 30.4,67.51 C28.17,68.32 27.09,68.9 27.01,70.64 L27,79.19 L27,86.1 L27,96.87 C27,97.42 26.84,100.17 30.16,101.77 C33.85,103.55 48.92,109.12 63.99,109.12 C79.06,109.12 94.14,103.55 97.82,101.77 C101.14,100.17 100.98,97.42 100.98,96.87 Z" fill="#F5F5F5"/>
  <path d="M30.4,67.5 C29.64,67.63 28.96,67.99 28.52,68.48 C28.1,68.99 27.87,69.59 27.83,70.25 C27.77,70.88 27.84,71.65 27.88,72.39 L28.01,74.65 C28.21,77.67 28.32,80.71 28.36,83.75 C28.39,86.79 28.35,89.83 28.16,92.88 C28.11,93.65 28.08,94.39 28,95.19 C27.91,95.95 27.84,96.66 27.84,97.37 C27.82,98.78 28.04,100.25 29.27,101.26 C28.51,101.07 27.81,100.52 27.34,99.83 C26.87,99.14 26.58,98.34 26.38,97.54 C26.19,96.74 26.11,95.93 26.03,95.17 C25.94,94.44 25.89,93.67 25.81,92.91 C25.52,89.87 25.38,86.83 25.35,83.78 C25.32,80.73 25.39,77.68 25.67,74.62 C25.82,73.07 25.92,71.6 26.4,69.92 C26.69,69.1 27.24,68.29 28,67.84 C28.78,67.39 29.65,67.3 30.4,67.5 Z" fill="#808080"/>
  <path d="M97.4,67.5 C98.15,67.3 99.02,67.39 99.79,67.83 C100.55,68.28 101.1,69.09 101.39,69.91 C101.87,71.59 101.97,73.06 102.12,74.61 C102.4,77.67 102.47,80.72 102.44,83.77 C102.41,86.82 102.27,89.86 101.98,92.9 C101.91,93.65 101.85,94.43 101.76,95.16 C101.68,95.92 101.6,96.74 101.41,97.53 C101.21,98.32 100.92,99.12 100.45,99.82 C99.98,100.51 99.28,101.06 98.52,101.25 C99.75,100.24 99.97,98.77 99.95,97.36 C99.95,96.64 99.88,95.94 99.79,95.18 C99.71,94.39 99.68,93.64 99.63,92.87 C99.44,89.82 99.4,86.78 99.43,83.74 C99.47,80.7 99.58,77.67 99.78,74.64 L99.91,72.38 C99.95,71.64 100.02,70.87 99.96,70.24 C99.92,69.58 99.7,68.98 99.27,68.47 C98.84,67.99 98.17,67.63 97.4,67.5 Z" fill="#808080"/>
  <path d="M44.67,41.94 L44.67,41.94 C40.48,41.94 36.67,45.48 36.67,51.36 C36.67,57.24 40.48,60.78 44.67,60.78 L44.67,60.78 C48.86,60.78 52.67,57.24 52.67,51.36 C52.67,45.48 48.86,41.94 44.67,41.94 Z" fill="#422B0D"/>
  <path d="M44.28,45.87 L44.28,45.87 C43.25,45.15 41.7,45.38 40.7,46.82 C39.7,48.27 40.03,49.79 41.06,50.51 L41.06,50.51 C42.09,51.23 43.64,51 44.64,49.56 C45.64,48.11 45.31,46.59 44.28,45.87 Z" fill="#896024"/>
  <path d="M83.02,41.94 L83.02,41.94 C78.83,41.94 75.02,45.48 75.02,51.36 C75.02,57.24 78.83,60.78 83.02,60.78 L83.02,60.78 C87.21,60.78 91.02,57.24 91.02,51.36 C91.02,45.48 87.21,41.94 83.02,41.94 Z" fill="#422B0D"/>
  <path d="M82.63,45.87 L82.63,45.87 C81.6,45.15 80.05,45.38 79.05,46.82 C78.05,48.27 78.38,49.79 79.41,50.51 L79.41,50.51 C80.44,51.23 81.99,51 82.99,49.56 C84,48.11 83.67,46.59 82.63,45.87 Z" fill="#896024"/>
</svg>
